Sweet-Rainbow/icons/vmware-workstation.svg

<?xml version="1.0" encoding="UTF-8" standalone="no"?>
<!-- Generator: Gravit.io -->

<svg
   xmlns:dc="http://purl.org/dc/elements/1.1/"
   xmlns:cc="http://creativecommons.org/ns#"
   xmlns:rdf="http://www.w3.org/1999/02/22-rdf-syntax-ns#"
   xmlns:svg="http://www.w3.org/2000/svg"
   xmlns="http://www.w3.org/2000/svg"
   xmlns:sodipodi="http://sodipodi.sourceforge.net/DTD/sodipodi-0.dtd"
   xmlns:inkscape="http://www.inkscape.org/namespaces/inkscape"
   style="isolation:isolate"
   viewBox="0 0 36 36"
   width="48"
   height="48"
   version="1.1"
   id="svg18"
   sodipodi:docname="vmware-workstation.svg"
   inkscape:version="0.92.4 (5da689c313, 2019-01-14)">
  <metadata
     id="metadata24">
    <rdf:RDF>
      <cc:Work
         rdf:about="">
        <dc:format>image/svg+xml</dc:format>
        <dc:type
           rdf:resource="http://purl.org/dc/dcmitype/StillImage" />
        <dc:title></dc:title>
      </cc:Work>
    </rdf:RDF>
  </metadata>
  <defs
     id="defs22" />
  <sodipodi:namedview
     pagecolor="#ffffff"
     bordercolor="#666666"
     borderopacity="1"
     objecttolerance="10"
     gridtolerance="10"
     guidetolerance="10"
     inkscape:pageopacity="0"
     inkscape:pageshadow="2"
     inkscape:window-width="640"
     inkscape:window-height="480"
     id="namedview20"
     showgrid="false"
     inkscape:zoom="29.365243"
     inkscape:cx="25.325443"
     inkscape:cy="32"
     inkscape:current-layer="svg18"
     units="px" />
  <linearGradient
     id="_lgradient_2"
     x1="0"
     y1="0.5"
     x2="1"
     y2="0.5"
     gradientTransform="matrix(23,0,0,23,10,15)"
     gradientUnits="userSpaceOnUse">
    <stop
       offset="0%"
       stop-opacity="1"
       style="stop-color:rgb(247,242,6)"
       id="stop2" />
    <stop
       offset="97.82608695652173%"
       stop-opacity="1"
       style="stop-color:rgb(255,187,36)"
       id="stop4" />
  </linearGradient>
  <linearGradient
     id="_lgradient_3"
     x1="0"
     y1="0.5"
     x2="1"
     y2="0.5"
     gradientTransform="matrix(44,0,0,44,2,2)"
     gradientUnits="userSpaceOnUse">
    <stop
       offset="0%"
       stop-opacity="1"
       style="stop-color:rgb(84,51,255)"
       id="stop9" />
    <stop
       offset="51.73913043478261%"
       stop-opacity="1"
       style="stop-color:rgb(32,189,255)"
       id="stop11" />
    <stop
       offset="98.26086956521739%"
       stop-opacity="1"
       style="stop-color:rgb(165,254,203)"
       id="stop13" />
  </linearGradient>
  <g
     id="g836"
     transform="matrix(0.81818182,0,0,0.81818182,-1.6363637,-1.6363637)">
    <path
       id="path7"
       d="M 30.6,38 C 31.93,38 33,36.93 33,35.6 V 17.4 C 33,16.07 31.93,15 30.6,15 H 12.4 C 11.07,15 10,16.07 10,17.4 v 18.2 c 0,1.33 1.07,2.4 2.4,2.4 z M 28,33 H 15 V 20 h 13 z"
       inkscape:connector-curvature="0"
       style="fill:url(#_lgradient_2)" />
    <path
       id="path16"
       d="m 6,18.36 v 0 c 0,1.104 -0.896,2 -2,2 v 0 c -1.104,0 -2,-0.896 -2,-2 v 0 V 7 C 2,4.24 4.24,2 7,2 h 11.36 v 0 c 1.104,0 2,0.896 2,2 v 0 c 0,1.104 -0.896,2 -2,2 V 6 H 9 C 7.344,6 6,7.344 6,9 Z M 29.64,6 v 0 c -1.104,0 -2,-0.896 -2,-2 v 0 c 0,-1.104 0.896,-2 2,-2 V 2 H 41 c 2.76,0 5,2.24 5,5 v 11.36 0 c 0,1.104 -0.896,2 -2,2 v 0 c -1.104,0 -2,-0.896 -2,-2 v 0 V 9 C 42,7.344 40.656,6 39,6 Z M 42,29.64 v 0 c 0,-1.104 0.896,-2 2,-2 v 0 c 1.104,0 2,0.896 2,2 v 0 V 41 c 0,2.76 -2.24,5 -5,5 H 30 v 0 c -1.104,0 -2,-0.896 -2,-2 v 0 c 0,-1.104 0.896,-2 2,-2 v 0 h 9 c 1.656,0 3,-1.344 3,-3 z M 18.36,42 v 0 c 1.104,0 2,0.896 2,2 v 0 c 0,1.104 -0.896,2 -2,2 v 0 H 7 C 4.24,46 2,43.76 2,41 v -11.36 0 c 0,-1.104 0.896,-2 2,-2 v 0 c 1.104,0 2,0.896 2,2 v 0 9.36 c 0,1.656 1.344,3 3,3 z M 35.6,33 C 36.93,33 38,31.93 38,30.6 V 12.4 C 38,11.07 36.93,10 35.6,10 H 17.4 C 16.07,10 15,11.07 15,12.4 V 15 H 33 V 28 H 20 v -8 h -5 v 10.6 c 0,1.33 1.07,2.4 2.4,2.4 z"
       inkscape:connector-curvature="0"
       style="fill:url(#_lgradient_3);fill-rule:evenodd" />
  </g>
</svg>

<?xml version="1.0" encoding="UTF-8" standalone="no"?><!-- Generator: Gravit.io --><svg xmlns="http://www.w3.org/2000/svg" xmlns:xlink="http://www.w3.org/1999/xlink" style="isolation:isolate" viewBox="0 0 48 48" width="48pt" height="48pt"><linearGradient id="_lgradient_2" x1="0" y1="0.5" x2="1" y2="0.5" gradientTransform="matrix(23,0,0,23,10,15)" gradientUnits="userSpaceOnUse"><stop offset="0%" stop-opacity="1" style="stop-color:rgb(247,242,6)"/><stop offset="97.82608695652173%" stop-opacity="1" style="stop-color:rgb(255,187,36)"/></linearGradient><path d=" M 30.6 38 C 31.93 38 33 36.93 33 35.6 L 33 17.4 C 33 16.07 31.93 15 30.6 15 L 12.4 15 C 11.07 15 10 16.07 10 17.4 L 10 35.6 C 10 36.93 11.07 38 12.4 38 L 30.6 38 Z  M 28 33 L 15 33 L 15 20 L 28 20 L 28 33 Z " fill="url(#_lgradient_2)"/><linearGradient id="_lgradient_3" x1="0" y1="0.5" x2="1" y2="0.5" gradientTransform="matrix(44,0,0,44,2,2)" gradientUnits="userSpaceOnUse"><stop offset="0%" stop-opacity="1" style="stop-color:rgb(84,51,255)"/><stop offset="51.73913043478261%" stop-opacity="1" style="stop-color:rgb(32,189,255)"/><stop offset="98.26086956521739%" stop-opacity="1" style="stop-color:rgb(165,254,203)"/></linearGradient><path d=" M 6 18.36 L 6 18.36 C 6 19.464 5.104 20.36 4 20.36 L 4 20.36 C 2.896 20.36 2 19.464 2 18.36 L 2 18.36 L 2 7 C 2 4.24 4.24 2 7 2 L 18.36 2 L 18.36 2 C 19.464 2 20.36 2.896 20.36 4 L 20.36 4 C 20.36 5.104 19.464 6 18.36 6 L 18.36 6 L 9 6 C 7.344 6 6 7.344 6 9 L 6 18.36 L 6 18.36 L 6 18.36 L 6 18.36 Z  M 29.64 6 L 29.64 6 C 28.536 6 27.64 5.104 27.64 4 L 27.64 4 C 27.64 2.896 28.536 2 29.64 2 L 29.64 2 L 41 2 C 43.76 2 46 4.24 46 7 L 46 18.36 L 46 18.36 C 46 19.464 45.104 20.36 44 20.36 L 44 20.36 C 42.896 20.36 42 19.464 42 18.36 L 42 18.36 L 42 9 C 42 7.344 40.656 6 39 6 L 29.64 6 L 29.64 6 L 29.64 6 L 29.64 6 Z  M 42 29.64 L 42 29.64 C 42 28.536 42.896 27.64 44 27.64 L 44 27.64 C 45.104 27.64 46 28.536 46 29.64 L 46 29.64 L 46 41 C 46 43.76 43.76 46 41 46 L 30 46 L 30 46 C 28.896 46 28 45.104 28 44 L 28 44 C 28 42.896 28.896 42 30 42 L 30 42 L 39 42 C 40.656 42 42 40.656 42 39 L 42 29.64 L 42 29.64 L 42 29.64 Z  M 18.36 42 L 18.36 42 C 19.464 42 20.36 42.896 20.36 44 L 20.36 44 C 20.36 45.104 19.464 46 18.36 46 L 18.36 46 L 7 46 C 4.24 46 2 43.76 2 41 L 2 29.64 L 2 29.64 C 2 28.536 2.896 27.64 4 27.64 L 4 27.64 C 5.104 27.64 6 28.536 6 29.64 L 6 29.64 L 6 39 C 6 40.656 7.344 42 9 42 L 18.36 42 L 18.36 42 Z  M 35.6 33 C 36.93 33 38 31.93 38 30.6 L 38 12.4 C 38 11.07 36.93 10 35.6 10 L 17.4 10 C 16.07 10 15 11.07 15 12.4 L 15 15 L 33 15 L 33 28 L 20 28 L 20 20 L 15 20 L 15 30.6 C 15 31.93 16.07 33 17.4 33 L 35.6 33 Z " fill-rule="evenodd" fill="url(#_lgradient_3)"/></svg>
